X: 21401
M: 3/4
L: 1/8
K: A
ea |\
(ag)(gf)(df) | feeEAc | cBcBcB | (Ac)(ce)(ea) |\
(ag)(gf)(df) | feeEAc | (cB)(cB)(cB) | A4 :|
|: E^D |\
=DB=FBEB | DB=FBEB | aAcAcA | ^BABAac |\
|:[K:D] AG |\


